src/assets/images/linkedin.svg

<svg width="18" height="19" viewBox="0 0 18 19" fill="none" xmlns="http://www.w3.org/2000/svg">
<path d="M17 0.660156H1C0.734784 0.660156 0.48043 0.763628 0.292893 0.947809C0.105357 1.13199 0 1.38179 0 1.64226V17.356C0 17.6164 0.105357 17.8663 0.292893 18.0504C0.48043 18.2346 0.734784 18.3381 1 18.3381H17C17.2652 18.3381 17.5196 18.2346 17.7071 18.0504C17.8946 17.8663 18 17.6164 18 17.356V1.64226C18 1.38179 17.8946 1.13199 17.7071 0.947809C17.5196 0.763628 17.2652 0.660156 17 0.660156ZM5.339 15.7227H2.667V7.28643H5.339V15.7227ZM4.003 6.13442C3.59244 6.13442 3.1987 5.97425 2.9084 5.68914C2.61809 5.40402 2.455 5.01733 2.455 4.61412C2.455 4.21091 2.61809 3.82422 2.9084 3.5391C3.1987 3.25399 3.59244 3.09382 4.003 3.09382C4.41356 3.09382 4.80729 3.25399 5.0976 3.5391C5.38791 3.82422 5.551 4.21091 5.551 4.61412C5.551 5.01733 5.38791 5.40402 5.0976 5.68914C4.80729 5.97425 4.41356 6.13442 4.003 6.13442ZM15.338 15.7227H12.669V11.6205C12.669 10.6423 12.651 9.38421 11.281 9.38421C9.891 9.38421 9.68 10.4508 9.68 11.5517V15.7237H7.013V7.28741H9.573V8.44041H9.61C9.965 7.77749 10.837 7.07823 12.134 7.07823C14.838 7.07823 15.337 8.82441 15.337 11.097V15.7227H15.338Z" fill="#0077B5"/>
</svg>

<svg xmlns="http://www.w3.org/2000/svg" width="18" height="19" fill="none"><path fill="#0077B5" d="M17 .66H1C.735.66.48.764.293.948A.973.973 0 0 0 0 1.642v15.714c0 .26.105.51.293.694.187.185.442.288.707.288h16c.265 0 .52-.103.707-.288a.973.973 0 0 0 .293-.694V1.642c0-.26-.105-.51-.293-.694A1.01 1.01 0 0 0 17 .66ZM5.339 15.723H2.667V7.286h2.672v8.437ZM4.003 6.134c-.41 0-.804-.16-1.095-.445a1.507 1.507 0 0 1-.453-1.075c0-.403.163-.79.453-1.075.29-.285.684-.445 1.095-.445.41 0 .804.16 1.095.445.29.285.453.672.453 1.075 0 .403-.163.79-.453 1.075-.29.285-.684.445-1.095.445Zm11.335 9.589h-2.669V11.62c0-.978-.018-2.236-1.388-2.236-1.39 0-1.601 1.067-1.601 2.168v4.172H7.013V7.287h2.56V8.44h.037c.355-.663 1.227-1.362 2.524-1.362 2.704 0 3.203 1.746 3.203 4.019v4.626h.001Z"/></svg>
